!!!!SEGMENT: pl-kozmzk--mzk-m-346--028_walczynski-franciszek--cantantibus-organis-allegro-moderato.krn
!!!cenid: 18xx:2823
!!!COM: Walczyński, Franciszek
!!!COM-rismID: pe30021989
!!!CDT: ~1852-1937
!!!CNT: Polish
!!!GTL: Cantantibus organis op. 10
!!!OTL: 28. Allegro moderato
!!!PDT: 1898
!!!AGN: Secular
!!!SMS-siglum: PL-KOZmzk
!!!SMS-shelfmark: mzk/m/346
!!!SMS-shelfwork: 028 G
!!!SMS-variant:
!!!SMS-altvar:
!!!NIFC-rismSourceID: 1001109277
!!!NIFC-islandoraID: pl-kozmzk:7453
!!!URL-pdf-islandora: https://repozytorium.nifc.pl/islandora/object/pl-kozmzk%3A7453/datastream/PDF/view
!!!URL-scan: https://polish.musicsources.pl/pl/lokalizacje/galeria/druki-muzyczne/7581 @EN{Scan on Polish Music Sources Website} @PL{Skany w portalu Dziedzictwo Muzyki Polskiej w otwartym dostępie}
!!!ONB-nifc:
!!!AIN: 2 organ
!!!key:
**kern	**kern	**dynam
*part2	*part1	*part1
*staff2	*staff1	*
*Iorgan	*Iorgan	*
*I"Organo	*I"Organo	*
*clefF4	*clefG2	*
*k[f#c#g#d#]	*k[f#c#g#d#]	*
*E:	*E:	*
*M2/2	*M2/2	*
*met(c|)	*met(c|)	*
=1	=1	=1
*^	*	*
!!LO:TX:B:a:t=Allegro moderato.
(8g#>\L	1r	(8ee/L	.
8f#>\	.	8dd#/	.
8e>\	.	8cc#/	.
8d#>\J	.	8b/J	.
8c#>\L	.	8a/L	.
8B>\J	.	8g#/	.
4d#>\)	.	8b/	.
.	.	8a/J	.
=2	=2	=2	=2
!LO:TX:t=P:problem=błędne wyświetlanie łuku	!	!	!
N(<8e>\L	1r	4g#/	.
8d#>\J	.	.	.
8c#/L	.	8a/L	.
8B/J	.	8g#/J	.
4A/	.	8f#/L	.
.	.	8g#/	.
4A#X/N)	.	8f#/	.
.	.	8e/J	.
=3	=3	=3	=3
*	*	*^	*
(8B/L	2r	(2d#/)	2r	.
8c#/	.	.	.	.
8B/	.	.	.	.
8An/J	.	.	.	.
!	!	!	!	!LO:DY:a
!	!	!	!	!LO:DY:a
!	!	!	!LO:TX:t=P:problem=drugie f u dołu systemu	!
!	!	!	!	!LO:HP:a
8G#/L	8r	8e/L)	8r	f <
!	!LO:TX:i:b=2:t=Ped.	!	!	!
[8B/J	(8BB\	8f#/J	8d#\	.
4B/])	8E\L	4g#/	4e\	.
.	8Dn\J	.	.	[
=4	=4	=4	=4	=4
(8A/L	8C#\L	(8a/L	2e\	.
8G#/	8BB\	8b/	.	.
8A/	8AA\	8cc#/	.	.
8B/J	8GG#\J	8b/J	.	.
2e/	2FF#\	8a#X/L	2f#\	.
.	.	8ee/	.	.
.	.	8dd#/	.	.
.	.	8cc#/J	.	.
=5	=5	=5	=5	=5
4f#/	8BB\L	4dd#/	4.b\	ff
.	8AA\J	.	.	.
4e/	4GG#\	8ee/L	.	.
.	.	8b/J	[8e\	.
4A/	8AA\L	8cc#/L	2e\_	.
.	16BB\L	16b/L	.	.
.	16C#\JJ	16a/JJ	.	.
8B/L	[4BB\	4g#/	.	.
8A#X/J	.	.	.	.
=6	=6	=6	=6	=6
!	!	!	!	!LO:DY:a
!	!	!	!	!LO:HP:a
8B/L	2BB\]	4.f#/	4e\]	p >
8A#X/J	.	.	.	.
4An/	.	.	4d#\	.
.	.	8g#/	.	.
2G#/)	2E\)	2e/)	2e\	]
*	*	*v	*v	*
=7	=7	=7	=7
!LO:TX:i:b=2:t=Man.	!	!	!LO:DY:a
8r	1r	(>1d# 1f#	pp
(8B/L	.	.	.
8A#X/	.	.	.
8B/J	.	.	.
8cn/L	.	.	.
8B/	.	.	.
8A#/	.	.	.
8B/J)	.	.	.
=8	=8	=8	=8
!!LO:LB:g=original
8r	1r	1e 1g#	.
(8B/L	.	.	.
8A#X/	.	.	.
8B/J	.	.	.
8c#X/L	.	.	.
8B/	.	.	.
8A#/	.	.	.
8B/J)	.	.	.
=9	=9	=9	=9
8r	1r	1f#) 1a	.
(8B/L	.	.	.
8A#X/	.	.	.
8B/J	.	.	.
8c#/L	.	.	.
8B/	.	.	.
8c#/	.	.	.
8d#/J)	.	.	.
=10	=10	=10	=10
*	*	*^	*
(2.e/	1r	(8g#/L	8e\L	.
.	.	8a/	8f#\	.
.	.	8b/	8g#\	<
.	.	8cc#/J	8a\J	.
.	.	4b/	4g#\	.
4B/)	.	4dd#/)	4a\	[[
=11	=11	=11	=11	=11
!	!LO:TX:i:b=2:t=Ped.	!	!	!
(8e/L	[1E	(8gg#/L	[1g#	f
8d#/	.	8ff#/	.	.
8c#/	.	8ee/	.	.
8B/J	.	8dd#/J	.	.
8c#/L	.	8ee/L	.	.
8B/	.	8dd#/	.	.
8A/	.	8cc#/	.	.
8G#/J	.	8b/J	.	.
=12	=12	=12	=12	=12
8c#/L	(2.E\]	8ee/L	(2.g#\]	.
8B/	.	8dd#/	.	.
8A/	.	8cc#/	.	.
8G#/J	.	8b/J	.	.
8A/L	.	8cc#/L	.	.
8G#/J	.	8b/	.	.
4B/)	8D#\L	8a/	8f#\L	.
.	8E\J)	8g#/J)	8e\J)	.
=13	=13	=13	=13	=13
(2.c#/	(4.AA\	(8f#/L	(2.e\	.
.	.	8g#/	.	.
.	.	8f#/	.	.
.	8GG#\	8g#/J	.	.
.	4FF#\	4a/	.	.
4A/	4BB\	8g#/L	4d#\	.
.	.	8f#/J)	.	.
=14	=14	=14	=14	=14
2.B/	2.E\)	(8g#/L	8e\L	.
.	.	8a/	8f#\	.
.	.	8b/	8g#\	<
.	.	8cc#/J	8a\J	.
.	.	4b/	4g#\	.
4B/)	4r	4dd#/)	4a\)	[
=15	=15	=15	=15	=15
!!LO:LB:g=original
!	!LO:TX:b=2:i:t=Ped.	!	!LO:TX:t=P:problem=drugie f u dołu systemu	!
(8e/L	2.E\	8gg#/L	(1g#	f
8dn/	.	8ff#/	.	.
8c#/	.	8ee/	.	.
8d/J	.	8ff#/J	.	.
8c#/L	.	8ee/L	.	.
8B/J	.	8ddn/	.	.
4B/	4E#X\	8cc#/	.	.
.	.	8dd/J	.	.
=16	=16	=16	=16	=16
4A/)	4F#\	4cc#/	4a\)	.
4f#^/	4r	4ff#^/	4r	.
4g#^/	2r	4gg#^/	2r	.
4a^/	.	4aa^/	.	.
=17	=17	=17	=17	=17
(8g#/L	(1B	8bb/L	[1b	.
8e/	.	8gg#/	.	.
8d#/	.	8ff#/	.	.
8c#/J	.	8ee/J	.	.
8a/L	.	8dd#/L	.	.
8g#/	.	8ee/	.	.
8a/	.	8ff#/	.	.
8f#/J	.	8dd#/J	.	.
=18	=18	=18	=18	=18
!	!	!	!	!LO:HP:b=2
4e/)	4e\)	2.ee/	2.g#\ 2.b]	>
2.ryy	4B^\	.	.	.
.	4G#^\	.	.	.
.	4F#^\	4r	4ryy	]
=19	=19	=19	=19	=19
!	!	!	!	!LO:DY:b
1r	8E'\L	1rdd	1rg	p
.	8D#'\	.	.	.
.	8C#'\	.	.	.
.	8BB'\J	.	.	.
!	!	!	!	!LO:HP:b=2
.	8AA'\L	.	.	>
.	8GG#'\	.	.	.
!LO:TX:a:i:t=rit.	!	!	!	!
.	(8FF#\	.	.	.
.	[8EE\J)	.	.	.
=20	=20	=20	=20	=20
8r	1EE^_	8r	8ryy	]
!	!	!	!	!LO:DY:a
8B/	.	(8g#/L	4.e\	pp
4cn^/	.	8a/	.	.
.	.	8e/J	.	.
2B/	.	4g#/)	2e\	.
.	.	(4g#/	.	.
*v	*v	*	*	*
=21	=21	=21	=21
1EE_	4ccn^/)	1d# 1a	fp <
.	2cc^/	.	.
.	4cc/	.	.
*	*v	*v	*
=22	=22	=22
1EE;<]	1e; 1g# 1b	[ pp > ]]
==	==	==
*-	*-	*-
!!!system-decoration: {(s1,s2)}
!!!RDF**kern: > = above
!!!RDF**kern: < = below
!!!RDF**kern: N = link
!!!ENC: Kamil Watkowski
!!!END: 2021-08-09
